src/images/icons/arrow-play-svg_prev.svg

<svg width="38" height="38" viewBox="0 0 38 38" fill="none" xmlns="http://www.w3.org/2000/svg">
<rect width="38" height="38" rx="2" transform="matrix(-1 0 0 1 38 0)" fill="#003067"/>
<path fill-rule="evenodd" clip-rule="evenodd" d="M27.8667 30.0736C27.4457 29.9832 19.5405 25.4162 18.5582 24.8736L9.15607 19.4928L9.67061 19.0858C9.85772 18.9954 9.99804 18.9049 10.2319 18.7693C10.6529 18.5432 11.0271 18.3623 11.4481 18.091C12.2433 17.6388 12.945 17.2319 13.7402 16.7797C15.3306 15.9206 16.8274 15.0162 18.4646 14.1119C19.6808 13.4336 27.3522 8.9571 27.8667 8.86667V30.0736Z" fill="#F0F0F0"/>
</svg>

<svg xmlns="http://www.w3.org/2000/svg" width="38" height="38" fill="none" viewBox="0 0 38 38">
	<rect width="38" height="38" fill="#003067" rx="2" transform="matrix(-1 0 0 1 38 0)"/>
	<path fill="#F0F0F0" fill-rule="evenodd" d="M27.867 30.074c-.421-.09-8.326-4.658-9.309-5.2l-9.402-5.381.515-.407c.187-.09.327-.181.56-.317.422-.226.796-.407 1.217-.678.795-.452 1.497-.86 2.292-1.311 1.59-.86 3.087-1.764 4.725-2.668 1.216-.678 8.887-5.155 9.402-5.245v21.207z" clip-rule="evenodd"/>
</svg>
